assets/World map/Flat/world_map_flat.svg

<svg width="32" height="32" viewBox="0 0 32 32" fill="none" xmlns="http://www.w3.org/2000/svg">
<path d="M2.52 6.84L8.97 5L9.5 16.5L8.97 27.99L2.85 29.98C2.42 30.09 2 29.76 2 29.32V7.5C2 7.19 2.22 6.92 2.52 6.84ZM15.98 7L22.97 5L23.5 16.5L22.99 28L15.98 30L15 18.5L15.98 7Z" fill="white"/>
<path d="M15.98 7L8.96997 5V27.99L15.98 30V7ZM29.4 6.84L22.97 5V28L29.06 29.98C29.49 30.09 29.91 29.76 29.91 29.32V7.5C29.91 7.19 29.7 6.92 29.4 6.84Z" fill="#E6E6E6"/>
<path d="M3.94994 8.34L8.96994 7L10 16.5L8.96994 26L4.30994 27.42C3.86994 27.54 3.43994 27.21 3.43994 26.76V9C3.43994 8.69 3.64994 8.42 3.94994 8.34ZM15.9399 9.00002L22.9699 7.02002L24 16.5L22.9699 25.99L15.9399 27.99L15 18.5L15.9399 9.00002Z" fill="#00A6ED"/>
<path d="M15.94 9.00002L8.96997 7.02002V25.99L15.94 27.99V9.00002ZM27.94 8.34001L22.97 7.02002V26.02L27.58 27.44C28.02 27.56 28.45 27.23 28.45 26.78V9.00002C28.45 8.69002 28.24 8.42001 27.94 8.34001Z" fill="#0074BA"/>
<path d="M14.32 17.64L14.85 17.11C14.9218 17.0471 15.0098 17.0085 15.0922 16.9722L15.12 16.96H15.55C15.77 16.96 15.95 16.78 15.95 16.56V16.37C15.95 16.15 15.77 15.97 15.55 15.97H15.36C15.14 15.97 14.96 15.79 14.96 15.57V14.38C14.96 14.16 15.14 13.98 15.36 13.98H15.55C15.77 13.98 15.95 13.8 15.95 13.58V13.39C15.95 13.17 16.13 12.99 16.35 12.99H17.79C17.89 12.99 17.99 12.96 18.06 12.89L19.81 11.32C19.89 11.24 19.94 11.13 19.94 11.02V10.99C19.94 10.44 20.39 9.98999 20.94 9.98999H21.34C21.67 9.98999 21.94 10.26 21.94 10.59C21.94 10.81 22.12 10.99 22.34 10.99H23.53C23.75 10.99 23.93 10.81 23.93 10.59V10.4C23.93 10.18 24.11 9.99998 24.33 9.99998H24.37C25.22 9.99998 25.92 10.69 25.92 11.55V13.49C25.92 13.77 25.7 13.99 25.42 13.99C25.14 13.99 24.92 13.77 24.92 13.49V13.39C24.92 13.17 24.74 12.99 24.52 12.99H24.33C24.11 12.99 23.93 13.17 23.93 13.39V14.58C23.93 14.8 24.11 14.98 24.33 14.98C24.61 14.98 24.81 15.27 24.7 15.53L23.82 17.72C23.76 17.87 23.61 17.97 23.45 17.97H22.33C22.11 17.97 21.93 17.79 21.93 17.57V17.38C21.93 17.16 21.75 16.98 21.53 16.98H21.34C21.12 16.98 20.94 17.16 20.94 17.38V17.57C20.94 17.79 20.76 17.97 20.54 17.97H20.35C20.13 17.97 19.95 17.79 19.95 17.57V17.38C19.95 17.16 19.77 16.98 19.55 16.98H19.36C19.14 16.98 18.96 17.16 18.96 17.38V17.88C18.96 17.94 18.95 18 18.92 18.06L18.01 19.89C17.98 19.95 17.97 20.01 17.97 20.07V21.31C17.97 21.74 17.8 22.15 17.5 22.45L17.09 22.86C17.01 22.94 16.91 22.98 16.8 22.98H16.37C16.15 22.98 15.97 22.8 15.97 22.58V20.39C15.97 20.17 15.79 19.99 15.57 19.99H15.14C15.03 19.99 14.93 19.95 14.85 19.87L14.32 19.34C14.1 19.12 13.97 18.81 13.97 18.49C13.97 18.17 14.09 17.87 14.32 17.64ZM10.97 23.49C10.97 23.77 10.75 23.99 10.47 23.99C10.2 23.99 9.96999 23.77 9.98999 23.52V22.15C9.98999 22.07 9.95999 21.99 9.89999 21.93L9.51999 21.55C9.17999 21.21 8.98999 20.74 8.98999 20.26V19.14C8.98999 19.06 8.95999 18.98 8.89999 18.92L7.64999 17.67C7.51599 17.536 7.29852 17.3867 7.06448 17.2261C6.56497 16.8832 5.98999 16.4886 5.98999 16.08V13.72C5.98999 13.5279 6.15496 13.3528 6.27578 13.2245C6.40027 13.0924 6.4779 13.01 6.27999 13.01C6.08999 13.01 5.90999 13.09 5.77999 13.22L4.51999 14.48C4.31999 14.67 3.98999 14.54 3.98999 14.26V14.13C3.98999 14.05 4.01999 13.97 4.07999 13.91L4.31999 13.67C4.73999 13.25 4.97999 12.67 4.97999 12.07V11.7C4.97999 11.32 5.28999 11.01 5.66999 11.01H6.28999C6.66999 11.01 6.97999 11.32 6.97999 11.7C6.97999 11.87 7.11999 12.01 7.28999 12.01H7.38999C7.84999 12.01 8.28999 11.82 8.59999 11.48L9.21999 10.81C9.69999 10.3 10.37 10.01 11.07 10.01H12.67C13.39 10.01 13.97 10.59 13.97 11.31C13.97 11.76 13.79 12.19 13.47 12.51L13.06 12.92C13 12.98 12.97 13.06 12.97 13.14V13.51C12.97 13.79 12.75 14.01 12.47 14.01C12.19 14.01 11.97 13.79 11.97 13.51V11.51C11.97 11.23 11.75 11.01 11.47 11.01C11.19 11.01 10.97 11.23 10.97 11.51V11.7C10.97 11.87 10.83 12.01 10.66 12.01H9.87999C9.69999 12.01 9.55999 12.15 9.56999 12.33L9.58999 12.68C9.59999 12.85 9.45999 13 9.27999 13C9.10999 13 8.96999 13.14 8.96999 13.31V13.5C8.96999 13.78 9.18999 14 9.46999 14C9.74999 14 9.96999 13.78 9.96999 13.5C9.96999 13.22 10.19 13 10.47 13C10.75 13 10.97 13.22 10.97 13.5V13.87C10.97 13.95 11 14.03 11.06 14.09L11.75 14.78C11.87 14.9 11.87 15.1 11.75 15.22L11.46 15.51C11.15 15.82 10.72 16 10.28 16C10.11 16 9.96999 16.14 9.96999 16.31V16.5C9.96999 16.78 9.74999 17 9.46999 17C9.18999 17 8.96999 16.78 8.96999 16.5V16.31C8.96999 16.14 8.82999 16 8.65999 16H8.27999C8.10999 16 7.96999 16.14 7.96999 16.31V16.87C7.96999 16.95 7.99999 17.03 8.05999 17.09L9.87999 18.91C9.93999 18.97 10.02 19 10.1 19H10.54C10.82 19 11.1 19.06 11.35 19.19L12.52 19.77C12.8 19.9 12.97 20.18 12.97 20.49C12.97 20.79 12.79 21.07 12.52 21.21L11.91 21.52C11.33 21.81 10.97 22.39 10.97 23.04V23.49ZM21.97 19.51C21.97 19.82 22.08 20.12 22.27 20.36L22.48 20.61C22.78 20.98 23.27 21.15 23.73 21.04C23.87 21.01 23.97 20.88 23.97 20.74V20.37C23.97 20.21 24.09 20.08 24.24 20.06L24.39 20.04C24.7 20.01 24.97 20.25 24.97 20.56C24.97 20.8 25.14 21.02 25.38 21.07L25.6 21.12C25.79 21.16 25.97 21.02 25.97 20.82V19.98C25.97 19.43 25.52 18.98 24.97 18.98H24.11C24.02 18.98 23.94 19.02 23.88 19.08L23.51 19.49C23.32 19.7 22.97 19.57 22.97 19.28C22.97 19.11 22.83 18.97 22.66 18.97H22.28C22.11 18.99 21.97 19.13 21.97 19.3V19.51ZM23.47 24C23.19 24 22.97 23.78 22.97 23.5V22.83C22.97 22.37 23.34 21.99 23.8 21.99H25.41C25.72 21.99 25.97 22.24 25.97 22.55V23.5C25.97 23.78 25.75 24 25.47 24H23.47Z" fill="#00D26A"/>
</svg>

<svg xmlns="http://www.w3.org/2000/svg" width="32" height="32" fill="none"><path fill="#fff" d="M2.52 6.84 8.97 5l.53 11.5-.53 11.49-6.12 1.99a.684.684 0 0 1-.85-.66V7.5c0-.31.22-.58.52-.66ZM15.98 7l6.99-2 .53 11.5-.51 11.5-7.01 2L15 18.5 15.98 7Z"/><path fill="#E6E6E6" d="M15.98 7 8.97 5v22.99L15.98 30V7Zm13.42-.16L22.97 5v23l6.09 1.98c.43.11.85-.22.85-.66V7.5c0-.31-.21-.58-.51-.66Z"/><path fill="#00A6ED" d="M3.95 8.34 8.97 7 10 16.5 8.97 26l-4.66 1.42a.687.687 0 0 1-.87-.66V9c0-.31.21-.58.51-.66ZM15.94 9l7.03-1.98L24 16.5l-1.03 9.49-7.03 2L15 18.5l.94-9.5Z"/><path fill="#0074BA" d="M15.94 9 8.97 7.02v18.97l6.97 2V9Zm12-.66-4.97-1.32v19l4.61 1.42c.44.12.87-.21.87-.66V9c0-.31-.21-.58-.51-.66Z"/><path fill="#00D26A" d="m14.32 17.64.53-.53c.072-.063.16-.101.242-.138l.028-.012h.43c.22 0 .4-.18.4-.4v-.19c0-.22-.18-.4-.4-.4h-.19c-.22 0-.4-.18-.4-.4v-1.19c0-.22.18-.4.4-.4h.19c.22 0 .4-.18.4-.4v-.19c0-.22.18-.4.4-.4h1.44c.1 0 .2-.03.27-.1l1.75-1.57c.08-.08.13-.19.13-.3v-.03c0-.55.45-1 1-1h.4c.33 0 .6.27.6.6 0 .22.18.4.4.4h1.19c.22 0 .4-.18.4-.4v-.19c0-.22.18-.4.4-.4h.04c.85 0 1.55.69 1.55 1.55v1.94c0 .28-.22.5-.5.5s-.5-.22-.5-.5v-.1c0-.22-.18-.4-.4-.4h-.19c-.22 0-.4.18-.4.4v1.19c0 .22.18.4.4.4a.4.4 0 0 1 .37.55l-.88 2.19c-.06.15-.21.25-.37.25h-1.12c-.22 0-.4-.18-.4-.4v-.19c0-.22-.18-.4-.4-.4h-.19c-.22 0-.4.18-.4.4v.19c0 .22-.18.4-.4.4h-.19c-.22 0-.4-.18-.4-.4v-.19c0-.22-.18-.4-.4-.4h-.19c-.22 0-.4.18-.4.4v.5c0 .06-.01.12-.04.18l-.91 1.83c-.03.06-.04.12-.04.18v1.24c0 .43-.17.84-.47 1.14l-.41.41a.4.4 0 0 1-.29.12h-.43c-.22 0-.4-.18-.4-.4v-2.19c0-.22-.18-.4-.4-.4h-.43a.4.4 0 0 1-.29-.12l-.53-.53c-.22-.22-.35-.53-.35-.85 0-.32.12-.62.35-.85Zm-3.35 5.85c0 .28-.22.5-.5.5-.27 0-.5-.22-.48-.47v-1.37a.31.31 0 0 0-.09-.22l-.38-.38c-.34-.34-.53-.81-.53-1.29v-1.12a.31.31 0 0 0-.09-.22l-1.25-1.25c-.134-.134-.351-.283-.586-.444-.499-.343-1.074-.737-1.074-1.146v-2.36c0-.192.165-.367.286-.495.124-.133.202-.215.004-.215-.19 0-.37.08-.5.21l-1.26 1.26c-.2.19-.53.06-.53-.22v-.13c0-.08.03-.16.09-.22l.24-.24c.42-.42.66-1 .66-1.6v-.37c0-.38.31-.69.69-.69h.62c.38 0 .69.31.69.69 0 .17.14.31.31.31h.1c.46 0 .9-.19 1.21-.53l.62-.67c.48-.51 1.15-.8 1.85-.8h1.6c.72 0 1.3.58 1.3 1.3 0 .45-.18.88-.5 1.2l-.41.41a.31.31 0 0 0-.09.22v.37c0 .28-.22.5-.5.5s-.5-.22-.5-.5v-2c0-.28-.22-.5-.5-.5s-.5.22-.5.5v.19c0 .17-.14.31-.31.31h-.78c-.18 0-.32.14-.31.32l.02.35c.01.17-.13.32-.31.32-.17 0-.31.14-.31.31v.19c0 .28.22.5.5.5s.5-.22.5-.5.22-.5.5-.5.5.22.5.5v.37c0 .08.03.16.09.22l.69.69c.12.12.12.32 0 .44l-.29.29c-.31.31-.74.49-1.18.49-.17 0-.31.14-.31.31v.19c0 .28-.22.5-.5.5s-.5-.22-.5-.5v-.19c0-.17-.14-.31-.31-.31h-.38c-.17 0-.31.14-.31.31v.56c0 .08.03.16.09.22l1.82 1.82c.06.06.14.09.22.09h.44c.28 0 .56.06.81.19l1.17.58c.28.13.45.41.45.72 0 .3-.18.58-.45.72l-.61.31c-.58.29-.94.87-.94 1.52v.45Zm11-3.98c0 .31.11.61.3.85l.21.25c.3.37.79.54 1.25.43a.31.31 0 0 0 .24-.3v-.37c0-.16.12-.29.27-.31l.15-.02c.31-.03.58.21.58.52 0 .24.17.46.41.51l.22.05c.19.04.37-.1.37-.3v-.84c0-.55-.45-1-1-1h-.86c-.09 0-.17.04-.23.1l-.37.41a.31.31 0 0 1-.54-.21c0-.17-.14-.31-.31-.31h-.38c-.17.02-.31.16-.31.33v.21Zm1.5 4.49c-.28 0-.5-.22-.5-.5v-.67c0-.46.37-.84.83-.84h1.61c.31 0 .56.25.56.56v.95c0 .28-.22.5-.5.5h-2Z"/></svg>
